packages/ui-icons/svg/Line/peer-review.svg

<svg viewBox="0 0 1920 1920" version="1.1" xmlns="http://www.w3.org/2000/svg">
    <path d="M1281.53605,1465.48716 C1162.78038,1548.03944 941.288229,1667.32908 647.389295,1653.23219 C409.557563,1642.01875 225.123166,1548.35982 106.794671,1465.59395 L106.794671,1314.69308 C106.794671,1186.64627 188.599389,1076.43417 301.267767,1052.72575 C414.683707,1028.91054 530.769514,1015.24082 646.214554,1012.35737 C792.736842,1008.51276 942.142587,1022.18248 1087.38334,1052.83255 C1199.83813,1076.54096 1281.53605,1186.64627 1281.53605,1314.79988 L1281.53605,1465.48716 Z M427.178684,638.576019 L427.178684,631.634365 C472.993597,619.246184 502.255337,592.440721 525.216191,571.188582 C551.914859,546.625807 568.040855,531.781348 605.525784,531.781348 C642.263151,531.781348 658.175557,546.519013 684.55384,570.974992 C715.63109,599.489169 758.135369,638.576019 837.27022,638.576019 C895.046137,638.576019 932.744656,617.32388 961.152038,594.790204 L961.152038,638.576019 C961.152038,785.84587 841.435212,905.562696 694.165361,905.562696 C546.89551,905.562696 427.178684,785.84587 427.178684,638.576019 L427.178684,638.576019 Z M694.165361,264.794671 C817.406411,264.794671 920.356474,349.162461 951.006544,462.898785 C937.764005,472.6171 926.336975,483.082978 915.657508,492.908088 C889.386019,517.150478 873.687203,531.781348 837.27022,531.781348 C799.78529,531.781348 783.659295,516.936889 756.960627,492.374115 C726.203762,463.966732 683.913072,424.986677 605.525784,424.986677 C526.390933,424.986677 483.886654,464.180321 452.809405,492.694499 C444.159036,500.704099 436.576615,507.218574 429.100988,512.985486 C438.926097,374.686387 553.409985,264.794671 694.165361,264.794671 L694.165361,264.794671 Z M1109.38304,948.387359 C1052.35469,936.319562 994.57877,927.562398 936.802853,920.51395 C1016.47168,851.951771 1067.94671,751.671576 1067.94671,638.576019 L1067.94671,531.781348 C1067.94671,325.774428 900.279076,158 694.165361,158 C488.051646,158 320.384013,325.774428 320.384013,531.781348 L320.384013,638.576019 C320.384013,751.457986 371.645455,851.524593 451.10069,920.193566 C393.431568,927.13522 335.976035,936.319562 279.268064,948.280565 C117.474138,982.24127 0,1136.34598 0,1314.69308 L0,1519.95244 L21.6793182,1535.97164 C150.473691,1630.9121 362.674702,1746.78432 642.369945,1759.92006 C659.563887,1760.66763 676.54424,1761.0948 693.311003,1761.0948 C1010.81156,1761.0948 1249.39085,1621.94135 1366.54461,1535.97164 L1388.33072,1520.05923 L1388.33072,1314.79988 C1388.33072,1136.45277 1270.96338,982.348065 1109.38304,948.387359 L1109.38304,948.387359 Z M1509.20093,692.016072 L1388.30936,692.016072 L1388.30936,571.2313 L1614.0733,345.467365 L1734.85807,466.252138 L1509.20093,692.016072 Z M1898.68109,350.166331 L1730.1591,181.751135 C1702.71287,154.19811 1654.86886,153.877726 1626.88866,181.64434 L1302.55324,505.872961 C1288.99032,519.649474 1281.51469,537.911362 1281.51469,557.241198 L1281.51469,798.810743 L1523.08424,798.810743 C1542.30728,798.810743 1560.35558,791.441911 1574.77286,777.451809 L1898.78789,453.436778 C1927.08848,425.029395 1927.08848,378.680508 1898.68109,350.166331 L1898.68109,350.166331 Z" stroke="none" stroke-width="1" fill-rule="evenodd"/>
</svg>

<svg viewBox="0 0 1920 1920" version="1.1" xmlns="http://www.w3.org/2000/svg">
    <path d="M1281.536 1465.487c-118.756 82.552-340.248 201.842-634.147 187.745-237.831-11.213-422.266-104.872-540.594-187.638v-150.9c0-128.048 81.804-238.26 194.473-261.968 113.416-23.815 229.502-37.485 344.947-40.369 146.522-3.844 295.928 9.825 441.168 40.476 112.455 23.708 194.153 133.813 194.153 261.967v150.687zM427.179 638.576v-6.942c45.815-12.388 75.076-39.193 98.037-60.445 26.699-24.563 42.825-39.408 80.31-39.408 36.737 0 52.65 14.738 79.028 39.194 31.077 28.514 73.581 67.601 152.716 67.601 57.776 0 95.475-21.252 123.882-43.786v43.786c0 147.27-119.717 266.987-266.987 266.987-147.27 0-266.986-119.717-266.986-266.987zm266.986-373.781c123.241 0 226.191 84.367 256.842 198.104-13.243 9.718-24.67 20.184-35.35 30.01-26.271 24.241-41.97 38.872-78.387 38.872-37.485 0-53.61-14.844-80.31-39.407-30.756-28.407-73.047-67.387-151.434-67.387-79.135 0-121.64 39.193-152.717 67.707-8.65 8.01-16.232 14.525-23.708 20.291 9.825-138.299 124.309-248.19 265.064-248.19zm415.218 683.592c-57.028-12.067-114.804-20.825-172.58-27.873 79.669-68.562 131.144-168.842 131.144-281.938V531.781C1067.947 325.774 900.279 158 694.165 158c-206.113 0-373.781 167.774-373.781 373.781v106.795c0 112.882 51.261 212.949 130.717 281.618-57.67 6.941-115.125 16.126-171.833 28.087C117.474 982.24 0 1136.346 0 1314.693v205.26l21.68 16.019c128.794 94.94 340.995 210.812 620.69 223.948 17.194.748 34.174 1.175 50.941 1.175 317.5 0 556.08-139.154 673.234-225.123l21.786-15.913V1314.8c0-178.346-117.368-332.45-278.948-366.412zm399.818-256.37h-120.892V571.23l225.764-225.764 120.785 120.785-225.657 225.764zm389.48-341.85L1730.16 181.75c-27.446-27.553-75.29-27.873-103.27-.107l-324.336 324.229c-13.563 13.776-21.038 32.038-21.038 51.368v241.57h241.57c19.222 0 37.27-7.37 51.688-21.36l324.015-324.014c28.3-28.408 28.3-74.756-.107-103.27z" stroke="none" stroke-width="1" fill-rule="evenodd"/>
</svg>
